X: 2
T: Jenny's Chickens
R: reel
M: 4/4
L: 1/8
K: Bmin
| ~f3e fece | ~f3a eAce |~f3a fece | ~f2af eAce | ~f3a fece | ~f3e~e2ce |~f3a fece | ~f2af eAce ||: fBBA ~B3e | fB ~B2 ABce | fBBA ~B3e |~f2af eAce |fB~B2 fB~B2 | fB ~B2 ABce | fBBA ~B3e |~f2af eAcA :||: ~B2 ~b2 ABgB | ~B2 AB eAcA | B2 ~b2 ABge |1 ~f2af eAcA :|2 ~f2af eAce ||


Tune 756	Setting 27146

